!!!OTL@@DE: 's Mail&uuml;fterl
!!!COM: Kreipl. Joesph
!!!ODT: 1853
!!!OMD: Gem&uuml;thlich
!!!LYR: Klesheim, Anton von
!!!LDT: 1849
!!!OCL: Erk, Ludwig
!!!GCO: Deutscher Liederschatz, Band 1
**kern	**kern	**kern
*staff3	*staff2	*staff1
*Ipiano	*Ipiano	*Ivox
*clefF4	*clefG2	*clefG2
*k[b-]	*k[b-]	*k[b-]
*F:	*F:	*F:
*M3/4	*M3/4	*M3/4
*MM120	*MM120	*MM120
4r	4r	4c/
=1	=1	=1
4FF/ 4F/	8r	4c/
.	(8c/L	.
4r	8A/ 8f/	4.a/
.	8c/	.
4r	8A/ 8f/	.
.	8c/J)	8a/
=2	=2	=2
4CC/ 4C/	8r	4cc\
.	(8c/L	.
4r	8B-/ 8e/	4.g/
.	8c/	.
4r	8B-/ 8e/	.
.	8c/J)	8a/
=3	=3	=3
4CC/ 4C/	8r	4b-\
.	(8c/L	.
4r	8B-/ 8e/	4.dd\
.	8c/	.
4r	8B-/ 8e/	.
.	8c/J)	8cc\
=4	=4	=4
4FF/ 4F/	8r	2a/
.	(8c/L	.
4r	8A/ 8f/	.
.	8c/	.
4r	8A/ 8f/	4a/
.	8c/J)	.
=5	=5	=5
4GG/	8r	4a/
.	(8G/L	.
4r	8Bn/ 8f/	4.g/
.	8G/	.
4r	8d/ 8f/	.
.	8G/J)	8bn\
=6	=6	=6
4CC/ 4C/	8r	4dd\
.	(8G/L	.
4r	8c/ 8e/	4cc\
.	8G/	.
4r	8c/ 8e/	8bn/L
.	8G/J)	8a/J
=7	=7	=7
*^	*	*
8r	4GG\	2.r	4a/
(8G/L	.	.	.
8Bn/ 8f/	4r	.	4g/
8G/	.	.	.
8F/ 8B/	4GG\	.	8d/L
8G/J)	.	.	8e/J
=8	=8	=8	=8
(8E/L	2CC\ 2C\	2.r	4c/
8G/J	.	.	.
4c/)	.	.	4r
4r	4r	.	8d/L
.	.	.	8c/J
*v	*v	*	*
=9	=9	=9
[2.C/	8r	4c/
.	(8G/L	.
.	8B-/	4.g/
.	8c/J	.
.	8e/)	.
.	8r	8a/
=10	=10	=10
2.FF/ 2.C/_	8r	4.g/
.	(8F/L	.
.	8A/	.
.	8c/J	8f/
.	8f/)	4f/
.	8r	.
=11	=11	=11
2.CC/ 2.C/_	8r	4c/
.	(8B-/L	.
.	8c/	4.b-\
.	8e/	.
.	8g/	.
.	8B-/J)	8cc\
=12	=12	=12
2FF/ 2C/]	8r	2a/
.	(8A/L	.
.	8c/	.
.	8f/J	.
4r	8a/)	8r
.	8r	8f/
=13	=13	=13
*^	*	*
8r	2AA\	2.r	4f/
(8F/L	.	.	.
8c/ 8e-/	.	.	4.g/
8F/	.	.	.
8c/ 8e-/	4AAA\	.	.
8F/J)	.	.	8f/
=14	=14	=14	=14
8r	2BBB-\	2.r	4cc\
(8F/L	.	.	.
8B-/ 8d/	.	.	4b-\
8F/	.	.	.
8B-/ 8d/	4BB-\	.	8r
8F/J)	.	.	8g/
*v	*v	*	*
=15	=15	=15
2BBn/	8r	4g/
.	(8G/L	.
.	8d/ 8f/	4.a/
.	8G/	.
4BBBn/	8d/ 8f/	.
.	8G/J)	8g/
=16	=16	=16
2CC/	8r	4dd\
.	(8G/L	.
.	8c/ 8e/	4cc\
.	8G/	.
4C/	8c/ 8e/	8r
.	8G/J)	8cc/
=17	=17	=17
2.CC/	8r	4ee\
.	(8c/L	.
.	8B-/ 8e/	4.dd\
.	8c/	.
.	8B-/ 8e/	.
.	8c/J)	8b-\
=18	=18	=18
2.FF/	8r	4b-\
.	(8c/L	.
.	8A/ 8f/	4a/
.	8c/	.
.	8f/	8r
.	8a/J)	8a/
=19	=19	=19
*^	*	*
(4C/	2.C'\	(8e/ 8cc/L	4cc\
.	.	8c/	.
4D/	.	8f/ 8bn/	4bn\
.	.	8c/	.
4E/)	.	8g/ 8b-/	4b-\
.	.	8c/J)	.
*v	*v	*	*
=20	=20	=20
8FF/L	4f/ 4a/	4a/
[8F/J	.	.
2F\]	(8A/L	4r
.	8c/	.
.	8f/	4a/
.	8a/J)	.
=21	=21	=21
*^	*	*
4r	2.BB-\	8r	8f#/L
.	.	(8d/L	8g/J
2B-/	.	8cc/	4.ee\
.	.	8d/	.
.	.	8cc/	.
.	.	8b-/J)	8dd\
*v	*v	*	*
=22	=22	=22
8CC/L	4a/	4cc\
(8C/	.	.
8F/ 8A/	4.c/	4.c/
8C/	.	.
8G/ 8B-/	.	.
8F/) 8A/J	8c/	8c/
=23	=23	=23
8CC/L	4d/ 4b-/	4b-\
(8C/	.	.
8E/	4c/ 4a/	4a/
8C/	.	.
8E/	4B-/ 4g/	4g/
8C/J)	.	.
=24	=24	=24
(8FF/L	2A/ 2f/	2f/
8C/J	.	.
4F\)	.	.
==	==	==
*-	*-	*-
!!!ENC: Craig Stuart Sapp
!!!END: 2004/06/01/
!!!EFL: 121/651
